X:1
T:Whilst The Gamekeepers Lie Sleeping
M:4/4
L:1/8
Z:Jon Freeman
N:Transcribed from a live recording of Chris Woods/Andy Cutting
K:F
z6C2|C2FF F2CC|E2F2G3
w:O I've got a dog and a good dog too
F|F2A2c2B2|A2G2F3
w:(And)I keeps him in my ke-e-ping
B|B2c2d2BB|A2G2G2
w:For to catch those hares that run by night
FF|F2A2c2B2|A2G2F2z2|]
w:Whilst the game-kee-pers lie sle-e-ping